source/presentation/public/images/icons/types/grass.svg

<svg width="1em" height="1em" viewBox="0 0 35 35" xmlns="http://www.w3.org/2000/svg">
<circle cx="17.5" cy="17.5" r="17.5" fill="#388545"/>
<path d="m12.898 30.552c0 0.028 0.0194 0.0523 0.0467 0.0585l3.18 0.7227c0.0376 0.0086 0.0733-0.02 0.0733-0.0585v-3.6145c0-0.0333 0.0261-0.0602 0.0593-0.0604 0.5576-0.0021 4.9151-0.0557 7.4407-1.1999 1.3179-0.5971 2.1535-0.9012 3.15-1.95 1.0112-1.0642 1.4875-1.8657 1.8-3.3 0.3512-1.6118-0.0641-2.5962-0.45-4.2-0.4122-1.7134-0.9032-2.6038-1.65-4.2-1.4867-3.1776-4.7587-7.5022-5.0752-7.9176-0.0161-0.02109-0.038-0.02735-0.0628-0.01783-0.4898 0.18847-5.5986 2.1758-8.512 4.1854-1.7472 1.2053-2.7937 1.8601-4.2 3.45-1.4645 1.6558-2.4409 2.6613-3 4.8-0.47413 1.8136-0.58342 3.0186 0 4.8 0.68631 2.0955 1.7138 3.2078 3.6 4.35 1.1607 0.7029 3.2142 1.1247 3.5523 1.1908 0.0284 0.0056 0.0477 0.0302 0.0477 0.0591v2.9022zm3.2489-17.537c0.0281 0.019 0.0664 0.0112 0.0848-0.0173l2.6872-4.1651c0.0386-0.05985 0.1307-0.01453 0.1069 0.05259l-1.4365 4.0483c-0.0167 0.0472 0.0272 0.0939 0.075 0.0788 0.4697-0.1484 2.2602-0.6796 3.4837-0.5624 0.6124 0.0586 1.4259 0.3125 1.8882 0.4706 0.0648 0.0222 0.0463 0.1172-0.0221 0.1156-0.5801-0.0138-1.6939-0.0122-2.4661 0.1638-1.5298 0.3486-3.5397 1.7965-3.7346 1.9387-0.0109 8e-3 -0.0173 0.0184-0.0209 0.0314l-0.4131 1.5149c-0.013 0.0475 0.0339 0.09 0.0801 0.0729 0.5058-0.1873 2.6224-0.9326 4.0885-0.8579 1.3636 0.0695 3.1665 0.8994 3.9538 1.294 0.0626 0.0314 0.0277 0.1238-0.0409 0.1095-0.8238-0.1713-2.6381-0.4977-3.9129-0.3535-1.1436 0.1293-1.8248 0.2269-2.85 0.75-0.8689 0.4434-1.9494 1.5007-2.0856 1.6357-0.0095 0.0094-0.0153 0.0214-0.0169 0.0346l-0.2856 2.2849c-0.0055 0.0439 0.0352 0.0792 0.0772 0.0655 0.4817-0.1558 2.8112-0.8813 4.4109-0.8707 1.2579 0.0083 2.9787 0.4778 3.8297 0.7352 0.0686 0.0208 0.0487 0.121-0.0227 0.1153-0.9167-0.0734-2.7986-0.1792-4.107 0.0495-1.7393 0.304-4.2014 1.5027-4.475 1.6376-0.0165 0.0081-0.0272 0.0229-0.0309 0.0409l-0.8343 4.0327c-0.0133 0.064-0.1048 0.0637-0.1176-4e-4l-0.839-4.1948c-0.0021-0.0105-0.0061-0.0193-0.0133-0.0272-0.1242-0.1373-1.3668-1.4971-2.3899-2.0888-0.86017-0.4975-2.2519-0.8491-2.8553-0.9863-0.06406-0.0146-0.06249-0.1057 0.00234-0.1163 0.59039-0.0967 1.9336-0.2771 2.8529-0.0974 0.9835 0.1922 2.2952 0.9557 2.6232 1.1532 0.0369 0.0221 0.0843-3e-4 0.091-0.0428l0.4316-2.7335c0.0027-0.0171-0.0015-0.0338-0.0127-0.047-0.1392-0.1637-1.1095-1.2874-1.9331-1.7799-0.7497-0.4483-1.9736-0.7297-2.542-0.8429-0.06486-0.0129-0.06612-0.1052-0.00102-0.1169 0.59697-0.1072 1.9352-0.3019 2.843-0.0902 0.8851 0.2064 2.0402 0.9574 2.3312 1.1531 0.0342 0.023 0.0806 0.0057 0.0919-0.0339l0.5693-1.9924c0.0048-0.017 0.0023-0.0347-0.0077-0.0493-0.1082-0.1585-0.7708-1.115-1.3347-1.6275-0.4563-0.4147-1.2052-0.8632-1.5767-1.0753-0.0551-0.0315-0.0311-0.1155 0.0322-0.1115 0.4212 0.0266 1.2715 0.1006 1.8445 0.2868 0.7186 0.2334 1.6699 0.8603 1.8989 1.0151z" clip-rule="evenodd" fill-rule="evenodd"/>
</svg>

<svg width="1em" height="1em" viewBox="0 0 35 35" fill="none" xmlns="http://www.w3.org/2000/svg">
<circle cx="17.5" cy="17.5" r="17.5" fill="#388545"/>
<path fill-rule="evenodd" clip-rule="evenodd" d="M12.8976 30.5521C12.8976 30.5801 12.917 30.6044 12.9443 30.6106L16.1243 31.3333C16.1619 31.3419 16.1976 31.3133 16.1976 31.2748V27.6603C16.1976 27.627 16.2237 27.6001 16.2569 27.5999C16.8145 27.5978 21.172 27.5442 23.6976 26.4C25.0155 25.8029 25.8511 25.4988 26.8476 24.45C27.8588 23.3858 28.3351 22.5843 28.6476 21.15C28.9988 19.5382 28.5835 18.5538 28.1976 16.95C27.7854 15.2366 27.2944 14.3462 26.5476 12.75C25.0609 9.5724 21.7889 5.2478 21.4724 4.83238C21.4563 4.81129 21.4344 4.80503 21.4096 4.81455C20.9198 5.00302 15.811 6.99033 12.8976 8.99999C11.1504 10.2053 10.1039 10.8601 8.69762 12.45C7.2331 14.1058 6.25675 15.1113 5.69762 17.25C5.22349 19.0636 5.1142 20.2686 5.69762 22.05C6.38393 24.1455 7.41144 25.2578 9.29762 26.4C10.4583 27.1029 12.5118 27.5247 12.8499 27.5908C12.8783 27.5964 12.8976 27.621 12.8976 27.6499V30.5521ZM16.1465 13.0151C16.1746 13.0341 16.2129 13.0263 16.2313 12.9978L18.9185 8.8327C18.9571 8.77285 19.0492 8.81817 19.0254 8.88529L17.5889 12.9336C17.5722 12.9808 17.6161 13.0275 17.6639 13.0124C18.1336 12.864 19.9241 12.3328 21.1476 12.45C21.76 12.5086 22.5735 12.7625 23.0358 12.9206C23.1006 12.9428 23.0821 13.0378 23.0137 13.0362C22.4336 13.0224 21.3198 13.024 20.5476 13.2C19.0178 13.5486 17.0079 14.9965 16.813 15.1387C16.8021 15.1467 16.7957 15.1571 16.7921 15.1701L16.379 16.685C16.366 16.7325 16.4129 16.775 16.4591 16.7579C16.9649 16.5706 19.0815 15.8253 20.5476 15.9C21.9112 15.9695 23.7141 16.7994 24.5014 17.194C24.564 17.2254 24.5291 17.3178 24.4605 17.3035C23.6367 17.1322 21.8224 16.8058 20.5476 16.95C19.404 17.0793 18.7228 17.1769 17.6976 17.7C16.8287 18.1434 15.7482 19.2007 15.612 19.3357C15.6025 19.3451 15.5967 19.3571 15.5951 19.3703L15.3095 21.6552C15.304 21.6991 15.3447 21.7344 15.3867 21.7207C15.8684 21.5649 18.1979 20.8394 19.7976 20.85C21.0555 20.8583 22.7763 21.3278 23.6273 21.5852C23.6959 21.606 23.676 21.7062 23.6046 21.7005C22.6879 21.6271 20.806 21.5213 19.4976 21.75C17.7583 22.054 15.2962 23.2527 15.0226 23.3876C15.0061 23.3957 14.9954 23.4105 14.9917 23.4285L14.1574 27.4612C14.1441 27.5252 14.0526 27.5249 14.0398 27.4608L13.2008 23.266C13.1987 23.2555 13.1947 23.2467 13.1875 23.2388C13.0633 23.1015 11.8207 21.7417 10.7976 21.15C9.93743 20.6525 8.54574 20.3009 7.94232 20.1637C7.87826 20.1491 7.87983 20.058 7.94466 20.0474C8.53505 19.9507 9.87827 19.7703 10.7976 19.95C11.7811 20.1422 13.0928 20.9057 13.4208 21.1032C13.4577 21.1253 13.5051 21.1029 13.5118 21.0604L13.9434 18.3269C13.9461 18.3098 13.9419 18.2931 13.9307 18.2799C13.7915 18.1162 12.8212 16.9925 11.9976 16.5C11.2479 16.0517 10.024 15.7703 9.45565 15.6571C9.39079 15.6442 9.38953 15.5519 9.45463 15.5402C10.0516 15.433 11.3898 15.2383 12.2976 15.45C13.1827 15.6564 14.3378 16.4074 14.6288 16.6031C14.663 16.6261 14.7094 16.6088 14.7207 16.5692L15.29 14.5768C15.2948 14.5598 15.2923 14.5421 15.2823 14.5275C15.1741 14.369 14.5115 13.4125 13.9476 12.9C13.4913 12.4853 12.7424 12.0368 12.3709 11.8247C12.3158 11.7932 12.3398 11.7092 12.4031 11.7132C12.8243 11.7398 13.6746 11.8138 14.2476 12C14.9662 12.2334 15.9175 12.8603 16.1465 13.0151Z" fill="black"/>
</svg>
